chili-mild.svg

<svg fill="currentColor" viewBox="0 0 24 24"><path d="M16 10v12s-8-2-8-11v-1c0-.73.4-1.37 1-1.72l1.25.72L12 8l1.75 1L15 8.28c.6.35 1 .99 1 1.72m-4-3.5 1.75 1 1.52-.87c-.55-.97-1.36-1.69-2.3-1.98A2.996 2.996 0 0 0 10 2v2c.44 0 .8.29.94.69-.91.31-1.68 1.01-2.21 1.94l1.52.87z"/></svg>

<svg  viewBox="0 0 24 24" fill="currentColor"><path  d="M16 10V22C16 22 8 20 8 11V10C8 9.27 8.4 8.63 9 8.28L10.25 9L12 8L13.75 9L15 8.28C15.6 8.63 16 9.27 16 10M12 6.5L13.75 7.5L15.27 6.63C14.72 5.66 13.91 4.94 12.97 4.65C12.79 3.16 11.54 2 10 2V4C10.44 4 10.8 4.29 10.94 4.69C10.03 5 9.26 5.7 8.73 6.63L10.25 7.5L12 6.5Z"/></svg>
